public/images/employers/google.svg

<svg enable-background="new 259.95 -160.018 1400 1400" height="1400" viewBox="259.95 -160.018 1400 1400" width="1400" xmlns="http://www.w3.org/2000/svg"><path d="m1489.285 552.399c0-36.708-2.977-73.614-9.326-109.727h-509.344v207.944h291.678c-12.104 67.066-50.994 126.394-107.94 164.094v134.925h174.015c102.185-94.05 160.917-232.944 160.917-397.236z" fill="#4285f4"/><path d="m970.615 1079.998c145.641 0 268.463-47.819 357.95-130.362l-174.015-134.925c-48.414 32.938-110.917 51.589-183.737 51.589-140.878 0-260.327-95.043-303.186-222.826h-179.57v139.093c91.672 182.347 278.384 297.431 482.558 297.431z" fill="#34a853"/><path d="m667.43 643.474c-22.62-67.065-22.62-139.688 0-206.753v-139.093h-179.372c-76.59 152.585-76.59 332.354 0 484.938z" fill="#fbbc04"/><path d="m970.615 213.696c76.987-1.19 151.395 27.779 207.15 80.956l154.173-154.172c-97.623-91.67-227.191-142.069-361.323-140.482-204.174 0-390.887 115.083-482.558 297.63l179.373 139.093c42.66-127.982 162.307-223.025 303.185-223.025z" fill="#ea4335"/></svg>

<?xml version="1.0" encoding="utf-8"?>
<!-- Generator: Adobe Illustrator 16.0.0, SVG Export Plug-In . SVG Version: 6.00 Build 0)  -->
<!DOCTYPE svg PUBLIC "-//W3C//DTD SVG 1.1//EN" "http://www.w3.org/Graphics/SVG/1.1/DTD/svg11.dtd">
<svg version="1.1" id="Livello_1" xmlns="http://www.w3.org/2000/svg" xmlns:xlink="http://www.w3.org/1999/xlink" x="0px" y="0px"
	 width="1400px" height="1400px" viewBox="259.95 -160.018 1400 1400" enable-background="new 259.95 -160.018 1400 1400"
	 xml:space="preserve">
<g>
	<path fill="#4285F4" d="M1489.285,552.399c0-36.708-2.977-73.614-9.326-109.727H970.615v207.944h291.678
		c-12.104,67.066-50.994,126.394-107.94,164.094v134.925h174.015C1430.553,855.585,1489.285,716.691,1489.285,552.399z"/>
	<path fill="#34A853" d="M970.615,1079.998c145.641,0,268.463-47.819,357.95-130.362l-174.015-134.925
		c-48.414,32.938-110.917,51.589-183.737,51.589c-140.878,0-260.327-95.043-303.186-222.826h-179.57v139.093
		C579.729,964.914,766.441,1079.998,970.615,1079.998z"/>
	<path fill="#FBBC04" d="M667.43,643.474c-22.62-67.065-22.62-139.688,0-206.753V297.628H488.058
		c-76.59,152.585-76.59,332.354,0,484.938L667.43,643.474z"/>
	<path fill="#EA4335" d="M970.615,213.696c76.987-1.19,151.395,27.779,207.15,80.956l0,0l154.173-154.172
		C1234.315,48.81,1104.747-1.589,970.615-0.002c-204.174,0-390.887,115.083-482.558,297.63L667.43,436.721
		C710.09,308.739,829.737,213.696,970.615,213.696z"/>
</g>
</svg>
